Papirus-Light/24x24/animations/nm-vpn-connecting09.svg

<?xml version="1.0" encoding="UTF-8" standalone="no"?>
<svg xmlns="http://www.w3.org/2000/svg" version="1.1" width="24" height="24">
 <defs>
  <linearGradient x1="7" y1="12" gradientTransform="matrix(-0.43209,0.90183,0.90183,0.43209,6.3632,-4.0071)" x2="19" gradientUnits="userSpaceOnUse" y2="5" id="linearGradient3605">
   <stop offset="0" stop-opacity=".5" stop-color="#5c616c"/>
   <stop offset="1" stop-opacity="0" stop-color="#5c616c"/>
  </linearGradient>
  <linearGradient x1="7" y1="12" gradientTransform="matrix(0.43209,-0.90183,-0.90183,-0.43209,17.637,28.007)" x2="17" gradientUnits="userSpaceOnUse" y2="12" id="linearGradient3611">
   <stop offset="0" stop-color="#5c616c"/>
   <stop offset="1" stop-color="#5c616c" stop-opacity=".5"/>
  </linearGradient>
 </defs>
 <path d="M 15.025391 5.6875 L 14.160156 7.4902344 C 15.953821 8.349431 16.972905 10.139696 16.970703 12.003906 C 16.980749 12.003804 16.98993 12 17 12 C 17.741614 12 18.408976 12.287156 18.929688 12.742188 C 19.236959 9.8771804 17.772887 7.0034994 15.025391 5.6875 z M 9.4179688 16.402344 C 8.4831688 16.379344 7.9487094 17.819547 8.9746094 18.310547 C 10.276919 18.935307 11.670979 19.094204 13 18.898438 L 13 16.865234 C 11.966964 17.0818 10.864996 17.001171 9.8398438 16.509766 C 9.6933438 16.439766 9.5514687 16.406344 9.4179688 16.402344 z" style="fill:url(#linearGradient3611)"/>
 <path d="M 12.330078 5.0058594 C 9.6050781 4.8785594 6.9404 6.3598094 5.6875 8.9746094 C 4.0171 12.461009 5.4881094 16.6425 8.9746094 18.3125 L 9.8398438 16.509766 C 7.3495438 15.316766 6.2970344 12.330044 7.4902344 9.8398438 C 8.6833344 7.3495438 11.669156 6.2970344 14.160156 7.4902344 L 15.025391 5.6875 C 14.154391 5.2699 13.238078 5.0482594 12.330078 5.0058594 z" style="fill:url(#linearGradient3605)"/>
 <path d="m17 13c-1.108 0-2 .91085-2 2.0312v.96875h-1v4h6v-4h-1v-.96875c0-1.12-.892-2.031-2-2.031zm0 1c.554 0 1 .4424 1 1v1h-2v-1c0-.5576.446-1 1-1z" fill="#5c616c"/>
</svg>

<?xml version="1.0" encoding="UTF-8" standalone="no"?>
<svg width="24" xmlns="http://www.w3.org/2000/svg" version="1.1" height="24">
 <defs>
  <linearGradient id="linearGradient3605" x1="7" gradientUnits="userSpaceOnUse" x2="19" gradientTransform="matrix(-.43209 .90183 .90183 .43209 6.3632 -4.0071)" y1="12" y2="5">
   <stop stop-opacity=".5" stop-color="#5c616c" offset="0"/>
   <stop stop-opacity="0" stop-color="#5c616c" offset="1"/>
  </linearGradient>
  <linearGradient id="linearGradient3611" x1="7" gradientUnits="userSpaceOnUse" x2="17" gradientTransform="matrix(.43209 -.90183 -.90183 -.43209 17.637 28.007)" y1="12" y2="12">
   <stop stop-color="#5c616c" offset="0"/>
   <stop stop-color="#5c616c" stop-opacity=".5" offset="1"/>
  </linearGradient>
 </defs>
 <path style="fill:url(#linearGradient3611)" d="m15.025 5.6875l-0.865 1.8027c1.794 0.8592 2.813 2.6498 2.811 4.5138 0.01 0 0.019-0.004 0.029-0.004 0.742 0 1.409 0.287 1.93 0.742 0.307-2.8648-1.157-5.7385-3.905-7.0545zm-5.607 10.714c-0.9348-0.023-1.4693 1.418-0.4434 1.909 1.3024 0.624 2.6964 0.783 4.0254 0.587v-2.033c-1.033 0.217-2.135 0.136-3.1602-0.355-0.1465-0.07-0.2883-0.104-0.4218-0.108z"/>
 <path style="fill:url(#linearGradient3605)" d="m12.33 5.0059c-2.7249-0.1273-5.3896 1.3539-6.6425 3.9687-1.6704 3.4864-0.1994 7.6674 3.2871 9.3374l0.8652-1.802c-2.4903-1.193-3.5428-4.18-2.3496-6.6702 1.1931-2.4903 4.1788-3.5428 6.6698-2.3496l0.865-1.8027c-0.871-0.4176-1.787-0.6392-2.695-0.6816z"/>
 <path d="m17 13c-1.108 0-2 0.91085-2 2.0312v0.96875h-1v4h6v-4h-1v-0.96875c0-1.12-0.892-2.031-2-2.031zm0 1c0.554 0 1 0.4424 1 1v1h-2v-1c0-0.5576 0.446-1 1-1z" fill="#5c616c"/>
</svg>
